recipes/vk/icon.svg

<svg height="415" viewBox="0 0 415 415" width="415" xmlns="http://www.w3.org/2000/svg"><g fill="none" fill-rule="evenodd"><path d="m63.942.041h287.075c35.313 0 63.942 28.628 63.942 63.942v287.075c0 35.313-28.629 63.942-63.942 63.942h-287.075c-35.314 0-63.942-28.629-63.942-63.942v-287.075c0-35.314 28.628-63.942 63.942-63.942" fill="#4b6c91"/><path d="m203.998 290.525h16.974s5.126-.565 7.747-3.385c2.409-2.592 2.332-7.456 2.332-7.456s-.332-22.776 10.237-26.13c10.423-3.306 23.804 22.012 37.986 31.748 10.725 7.365 18.875 5.753 18.875 5.753l37.925-.53s19.838-1.224 10.431-16.822c-.77-1.274-5.48-11.538-28.199-32.626-23.782-22.072-20.594-18.501 8.051-56.68 17.445-23.251 24.418-37.445 22.239-43.524-2.076-5.792-14.908-4.262-14.908-4.262l-42.7.264s-3.168-.431-5.514.973c-2.295 1.373-3.768 4.581-3.768 4.581s-6.761 17.991-15.771 33.294c-19.014 32.286-26.618 33.995-29.726 31.987-7.231-4.673-5.424-18.769-5.424-28.786 0-31.29 4.746-44.336-9.242-47.713-4.641-1.12-8.06-1.861-19.931-1.982-15.237-.155-28.13.047-35.432 3.624-4.858 2.379-8.606 7.679-6.322 7.984 2.823.376 9.213 1.725 12.601 6.335 4.377 5.955 4.224 19.323 4.224 19.323s2.515 36.833-5.872 41.407c-5.755 3.138-13.651-3.268-30.603-32.56-8.684-15.004-15.243-31.591-15.243-31.591s-1.263-3.099-3.519-4.758c-2.736-2.01-6.559-2.647-6.559-2.647l-40.578.265s-6.09.17-8.328 2.819c-1.991 2.358-.159 7.229-.159 7.229s31.766 74.322 67.738 111.776c32.987 34.344 70.438 32.09 70.438 32.09" fill="#fff"/></g></svg>

<?xml version="1.0" encoding="UTF-8" standalone="no"?>
<svg width="415px" height="415px" viewBox="0 0 415 415" version="1.1" xmlns="http://www.w3.org/2000/svg" xmlns:xlink="http://www.w3.org/1999/xlink">
    <!-- Generator: Sketch 39.1 (31720) - http://www.bohemiancoding.com/sketch -->
    <title>vk</title>
    <desc>Created with Sketch.</desc>
    <defs></defs>
    <g id="Page-1" stroke="none" stroke-width="1" fill="none" fill-rule="evenodd">
        <g id="vk">
            <g id="Group-3" fill="#4B6C91">
                <path d="M63.942,0.041 L351.017,0.041 C386.33,0.041 414.959,28.669 414.959,63.983 L414.959,351.058 C414.959,386.371 386.33,415 351.017,415 L63.942,415 C28.628,415 0,386.371 0,351.058 L0,63.983 C0,28.669 28.628,0.041 63.942,0.041" id="Fill-1"></path>
            </g>
            <path d="M203.998,290.525 L220.972,290.525 C220.972,290.525 226.098,289.96 228.719,287.14 C231.128,284.548 231.051,279.684 231.051,279.684 C231.051,279.684 230.719,256.908 241.288,253.554 C251.711,250.248 265.092,275.566 279.274,285.302 C289.999,292.667 298.149,291.055 298.149,291.055 L336.074,290.525 C336.074,290.525 355.912,289.301 346.505,273.703 C345.735,272.429 341.025,262.165 318.306,241.077 C294.524,219.005 297.712,222.576 326.357,184.397 C343.802,161.146 350.775,146.952 348.596,140.873 C346.52,135.081 333.688,136.611 333.688,136.611 L290.988,136.875 C290.988,136.875 287.82,136.444 285.474,137.848 C283.179,139.221 281.706,142.429 281.706,142.429 C281.706,142.429 274.945,160.42 265.935,175.723 C246.921,208.009 239.317,209.718 236.209,207.71 C228.978,203.037 230.785,188.941 230.785,178.924 C230.785,147.634 235.531,134.588 221.543,131.211 C216.902,130.091 213.483,129.35 201.612,129.229 C186.375,129.074 173.482,129.276 166.18,132.853 C161.322,135.232 157.574,140.532 159.858,140.837 C162.681,141.213 169.071,142.562 172.459,147.172 C176.836,153.127 176.683,166.495 176.683,166.495 C176.683,166.495 179.198,203.328 170.811,207.902 C165.056,211.04 157.16,204.634 140.208,175.342 C131.524,160.338 124.965,143.751 124.965,143.751 C124.965,143.751 123.702,140.652 121.446,138.993 C118.71,136.983 114.887,136.346 114.887,136.346 L74.309,136.611 C74.309,136.611 68.219,136.781 65.981,139.43 C63.99,141.788 65.822,146.659 65.822,146.659 C65.822,146.659 97.588,220.981 133.56,258.435 C166.547,292.779 203.998,290.525 203.998,290.525" id="Fill-4" fill="#FFFFFF"></path>
        </g>
    </g>
</svg>
